X:129
T: Reif und Schnee
N: A0155
O: Europa, Mitteleuropa, Deutschland
N: Melodie aus 4 Stellen zusammengesetzt, die 1611 in Melch. Francks
N: Fasc. quodlib. No. 7 vorkommen.
R: Romanze, Ballade, Lied
M: 4/4
L: 1/8
K: F
F2 | A2A2B2B2 | c2c2F2F2 | c3cc2c2 | G4z2
G2 | A2B2c2B2 | A2GFE2E2 | D2C2D2E2 | F6

@@@ Tune index: 129
